X:6
T:Happy Nigun
Z:Jack Campin, http://www.campin.me.uk
F:http://www.campin.me.uk/Music/EdinburghKlezmer.abc
M:4/4
L:1/8
Q:1/4=150
K:DMin
  D2 F2  A2d2|   f4-          fg/f/ ef      |gffe   ed^cd|   e4     z      A/c/BA|
  A2^c2  e3 d|(3^cde (3dcB    A3     e-     |ed^cB  AGFE |[1 D2zA (3A^GF (3FED  :|\
                                                          [2 D6            z2   ||
|:Adfe   dcBA|   Ac/B/ BB     B2-   B/c/B/A/|GBed  ^cBA^G|  ^GAAA   A2     zA    |
  A=B^cd efed|  ^c6                 z   e-  |ed^cB  AGFE |   D6            z2   :|
|:A2^G2  A2B2|   A3     d     D3        c   |B3A    GABc |   A4     z2     BA    |
  G2 GF  E2GF|(3 E2 E2 D2    ^C3        A,  |B,^CED EFCE |[1 D2zD (3DEF  (3F^GA :|\
                                                          [2 D6            z2   |]
